X: 31166
T: Paddy Fahey's
R: reel
M: 4/4
K: Ddorian
D2 A,D FEFG|Ad^cA ~d3 e|~f2 df edcA|dcAG FDCE|
D2 A,D FEFG|Ad^cA d3 e|f/g/agf edcA|1 dcAG FDCE:|2 dcAG FDdc||
Ad~d2 adfd|~c3G EFGc|Ad~d2 adfd|~c3d edcA|
~a2^ga ABcA|dcAG FDCE|~D2 A,D FEFG|Ad^cA d3=c|
Ad~d2 adfd|c2Gc EcGc|Ad~d2 Adfd|~c3d edcA|
~a2^ga ABcA|dcAG FDCE|~D2 A,D FEFG|Ad^cA d3E||

